X:1
T:His Tender Mercy
T:His Tender Mercy
T:William Thomas Wiley, 1899
T:From Psalm 118, 1909
T:Public Domain Courtesy of the Cyber Hymnal™
C:William Thomas Wiley, 1899
Z:Public Domain
Z:Courtesy of the Cyber Hymnal™
%%score ( 1 2 ) ( 3 4 )
L:1/8
Q:1/4=108
M:4/4
K:Ab
V:1 treble 
V:2 treble 
V:3 bass 
V:4 bass 
V:1
 [CE]2 | [EA]2 [EA]2 [EG]2 (Bc) | [Fd]2 [Ec]2 [EB]2 [EA]2 | [EG]2 [EB]2 [=DF]2 [FA]2 | %4
w: 1.~Give|thanks and praise to *|God a- bove, For|ev- er- last- ing|
w: 2.~Let|all His serv- ants *|tell a- broad The|ne- ver fail- ing|
w: 3.~In|bond- age of dis- *|tress and grief To|God I cried, and|
 [EG]2 [EA]2 !fermata![EB]2 [DE]2 | [CA]2 [Ec]2 [DB]2 ([CA][Ec]) | [_Ge]2 [Ge]2 [Fd]2 [DF]2 | %7
w: is His love; Praise|Him, ye saints, your *|Sav- ior praise, For-|
w: grace of God; Let|all who fear Je- *|ho- vah’s name His|
w: sought re- lief; In|won- drous love He *|heard my plea And|
 [CE]2 [EA]2 [EA]2 (GA) | [Gc]2 [GB]2 !fermata!A2 ||"^Refrain" [CE]2 | c6 [_GA]2 | A4 [DF]2 [DF]2 | %12
w: ev- er good in *|all His ways.||||
w: ev- er- last- ing *|love pro- claim.|His|ten- der|mer- cy lasts|
w: set my soul at *|li- ber- ty.||||
 [CE]2 [EA]2 [DG]2 [CA]2 | [Ec]2 [Ec]2 !fermata![EB]2 [CE]2 | c6 E2 [_GA]2 | A4 F4 | %16
w: ||||
w: for aye, His ten-|der mer- cy lasts|for aye; His|ten- der|
w: ||||
 [CE]2 [EA]2 [EG]2 [EB]2 !fermata!A6 |] x6 |] %18
w: ||
w: mer- cy, ten- der mer-||
w: ||
V:2
 x2 | x6 F2 | x8 | x8 | x8 | x8 | x8 | x6 E2 | x4 A2 || x2 | E2 E2 E2 x2 | F2 F2 x4 | x8 | x8 | %14
 E2 E2 x6 | F2 F2 D2 D2 | x8 E2 F2 E2 |] x6 |] %18
V:3
 [A,,A,]2 | [A,,C]2 [A,,C]2 [E,B,]2 ([D,F,][C,=A,]) | [B,,B,]2 [E,A,]2 [D,G,]2 [C,A,]2 | %3
 [B,,E,]2 [B,,G,]2 [B,,B,]2 [=D,B,]2 | [E,B,]2 [E,C]2 !fermata![E,D]2 [E,G,]2 | %5
 [A,,A,]2 [A,,A,]2 [E,G,]2 A,2 | [C,A,]2 [C,A,]2 [D,A,]2 [D,A,]2 | [A,,A,]2 [A,,C]2 [A,,C]2 (B,C) | %8
 [E,E]2 [E,D]2 !fermata![A,,C]2 || [A,,A,]2 | [A,,A,]2 [A,,A,]2 [A,,A,]2 [C,A,]2 | %11
 [D,A,]2 [D,A,]2 [D,A,]2 [D,A,]2 | [A,,A,]2 [C,A,]2 [B,,E,]2 [A,,A,]2 | %13
 A,2 A,2 !fermata![E,G,]2 [A,,A,]2 | [A,,A,]2 [A,,A,]2 [A,,A,]2 [C,A,]2 x2 | %15
 [D,A,]2 [D,A,]2 [D,A,]2 [D,A,]2 | A,2 C2 B,2 [E,D]2 x6 |] C2 D2 C2 |] %18
V:4
 x2 | x8 | x8 | x8 | x8 | x6 A,2 | x8 | x6 E,2 | x6 || x2 | x8 | x8 | x8 | A,2 A,2 x4 | x10 | x8 | %16
 E,6 x8 |] A,,6 |] %18

